X:1
T:Festa Januaria
T:Anonymous, c. 13th century Conductus
T:Festa Januaria
C:Anonymous, c. 13th century Conductus
%%score [ 1 2 3 ]
L:1/8
Q:3/8=95
M:12/8
K:D
V:1 treble-8 transpose=-12 nm="TENOR 1" snm="T."
V:2 bass nm="BASS 1" snm="B."
V:3 bass nm="BASS 2" snm="B."
V:1
 c3 d2 B A3 B2"^Second verse added by Christopher Page, of Gothic Voices" c | cBA B3 c2 z B3 | %2
w: Fes- ta _ jan- u- *|ar- * * i- a fes-|
w: ||
 A3 B3 d3 e3 | c3 B3 d3 z3 | d3 B3 G3 B3 | c3 A3 F2 z A3 | B3 G3 B=cB G3 | A3 B2 ^c dcB c3 | %8
w: ti- va sunt fes-|to- * rum|ve- ra fi- gu-|ra- li- a in-|sig- ni- a _ _ sig-|no- * * * * * *|
w: ||||||
 d6 z3 B3 | d3 d3 d3 e3 | c3 d3 c3 d3 | e3 c2 B A3 B2 c | dcB c3 d2 z B3 | d3 B3 G3 B3 | %14
w: rum Hex|lu- mi- num o-|bla- ti- o hec|est il- * lum- i- *|na- * * ti- o qua|pa- tet de- cla-|
w: ||||||
 c3 A3 F2 z A3 | B3 G3 B=cB G3 | A2 z AB^c dcB c3 | c6 d6 |: c3 d2 B A3 B2 c | cBA B3 c2 z B3 | %20
w: ra- ti- o ra-|ta- que re- * * rum|ra- * * * ti- * * *|o _|Fes- ta _ jan- u- *|ar- * * i- a fes-|
w: ||||[Sil- la- * ba- tim _|ne- * u- ma- ta pro-|
 A3 B3 d3 e3 | c3 B3 d3 z3 | d3 B3 G3 B3 | c3 A3 F2 z A3 | B3 G3 B=cB G3 | A3 B2 ^c dcB c3 | %26
w: ti- va sunt fes-|to- * rum|ve- ra fi- gu-|ra- li- a in-|sig- ni- a _ _ sig-|no- * * * * * *|
w: in- de per- strin-|ga- * mus|pa- ri- te or-|ga- ni- ca; or-|na- te pre- * * di-|ca- * * * * * *|
 d6 z3 B3 | d3 d3 d3 e3 | A3 d3 c2 z d3 | e3 c2 B A3 B2 c | dcB c3 d2 z B3 | d3 B3 G3 B3 | %32
w: rum Hex|lu- mi- num o-|bla- ti- o hec|est il- * lum- i- *|na- * * ti- o qua|pa- tet de- cla-|
w: mus quod|re- se- ra- tur|ja- nu- a et|com- pla- * nan- tur _|ar- * * du- a. Can-|te- mus nunc mel-|
 c3 A3 F2 z A3 | B3 G3 B=cB G3 | A2 z AB^c dcB c3 | c6 d6 :| %36
w: ra- ti- o ra-|ta- que re- * * rum|ra- * * * ti- * * *|o _|
w: li- flu- a per|fes- ta ja- * * nu-|a- * * * ri- * * *|a! _|
V:2
 z12 | z12 | z12 | z12 | z12 | z12 | z12 | z12 | z12 | z12 | z12 | z12 | z12 | z12 | z12 | z12 | %16
w: ||||||||||||||||
w: ||||||||||||||||
 z12 | z12 |: F,3 E,3 D,3 E,3 | D,3 E,3 F,2 z E,3 | D,3 E,3 G,3 E,3 | F,3 G,3 A,3 z3 | %22
w: ||Fes- ta jan- u-|ar- i- a fes-|ti- va sunt fes-|to- * rum|
w: ||[Sil- la- ba- tim|ne- u- ta pro-|in- de per- strin-|ga- * mus|
 G,3 B,3 D3 B,3 | A,3 G,3 A,2 z F,3 | G,3 G,3 G,A,G, E,3 | F,2 E, F,3 G,6 | A,6 z3 E3 | %27
w: ve- ra fi- gu-|ra- li- a in-|sig- ni- a _ _ sig-|no- * * *|rum Hex|
w: pa- ri- te or-|ga- ni- ca; or-|na- te pre- * * di-|ca- * * *|mus quod|
 D3 D3 D3 B,3 | C3 A,3 F,2 z F,3 | G,3 E,3 G,3 A,2 B, | A,3 G,3 A,2 z B,3 | G,3 B,3 D3 B,3 | %32
w: lu- mi- num o-|bla- ti- o hec|est il- lum- i- *|na- ti- o qua|pa- tet de- cla-|
w: re- se- ra- tur|ja- nu- a et|com- pla- nan- tur _|ar- du- a. Can-|te- mus nunc mel-|
 A,3 G,3 A,2 z F,3 | G,3 E,3 G,A,G, E,3 | F,E,D, F,2 A, B,2 z B,3 | B,6 A,6 :| %36
w: ra- ti- o ra-|ta- que re- * * rum|ra- * * * * ti- *|o _|
w: li- flu- a per|fes- ta ja- * * nu-|a- * * * * ri- *|a! _|
V:3
 z12 | z12 | z12 | z12 | z12 | z12 | z12 | z12 | z12 | z12 | z12 | z12 | z12 | z12 | z12 | z12 | %16
w: ||||||||||||||||
w: ||||||||||||||||
 z12 | z12 |: F,3 G,3 A,3 A,3 | A,3 A,3 F,2 z G,3 | A,3 B,3 G,3 E,3 | F,3 E,3 D,3 z3 | %22
w: ||Fes- ta jan- u-|ar- i- a fes-|ti- va sunt fes-|to- * rum|
w: ||[Sil- la- ba- tim|ne- u- ta pro-|in- de per- strin-|ga- * mus|
 G,3 G,3 G,3 E,3 | F,3 G,3 F,2 z D,3 | E,3 E,3 E,3 =C,3 | D,6 E,2 z E,3 | D,6 z3 E,3 | %27
w: ve- ra fi- gu-|ra- li- a in-|sig- ni- a sig-|no- * *|rum Hex|
w: pa- ri- te or-|ga- ni- ca; or-|na- te pre- di-|ca- * *|mus quod|
 G,3 G,3 G,3 E,3 | F,3 G,3 F,2 z D,3 | E,3 E,3 E,3 C,3 | D,3 E,3 D,2 z E,3 | G,3 G,3 G,3 E,3 | %32
w: lu- mi- num o-|bla- ti- o hec|est il- lum- i-|na- ti- o qua|pa- tet de- cla-|
w: re- se- ra- tur|ja- nu- a et|com- pla- nan- tur|ar- du- a. Can-|te- mus nunc mel-|
 F,3 G,3 F,2 z"^Text:Festa januariafestiva sunt festorum, vera figuraliainsignia signorum. Hec luminum oblatio, hec est illuminatio qua patet declaratio rataque rerum ratio.[Sillabatim neumata proinde perstringamus pariter organica;ornate predicamusquod reseratur januaet complanantur ardua. Cantemus nunc melliflua per festa januaria!][second verse added by Christopher Page]" D,3 | %33
w: ra- ti- o ra-|
w: li- flu- a per|
 E,3 E,3 E,3 =C,3 | %34
w: ta- que re- rum|
w: fes- ta ja- nu-|
"^Translation:The feasts of Januaryare the festivities of all feasts,true symbolsand the most significant of signs. This offering of lightsis an illuminationin which there is a declarationand a true understanding of things.[Let us therefore join musical phrases together, syllable by syllable, all of them equally polyphonic;we proclaim in an ornamented fashion that the door is unbarred and that the steep places have been levelled. Let us therefore sing honeyed things throughout the feasts of January!]" D,2 z D,3 E,2 z E,3 | %35
w: ra- * ti- *|
w: a- * ri- *|
 E,6 D,6 :| %36
w: o _|
w: a! _|

